X:172
T:Norwich Hornpipe TS.172
T:Liverpool Hornpipe,aka TS.172
M:2/4
L:1/16
Q:1/4=96
S:Thomas Sands’ MS,1810,Lincolnshire
R:.hornpipe
N:Key sig. as in MS. Should be D?
O:England;Lincolnshire
Z:vmp.Ruairidh Greig, 2011
K:G
AG|”_As written. Key sig for this is usually Dmaj”FDFA d2 ef|gfdc dcBA|BGGG AFFF|GBAG GFED|
FDFA d2 ef|gfed dcBA|g2 fe fafd|fedc “dotted in ms” d2:|
|:de|fddd eccc|dfed dcBA|BGGG AFFF|GBAG GFED|
FDFA d2 ef|gfed dcBA|g2 fe fafd|fedc “dotted in ms” d2:|]

